X: 45
T:The Jolly Coppersmith
% Nottingham Music Database
S:Toby, via EF
M:4/4
K:D
M:4/4
L:1/4
"A7"F/2G/2|:"D"AB AF|"D"AB AF|"A7"AG2F|G3d|c3/2c/2 ce|
B3/2B/2 Bc|"D"BA A^G|"A7"A3F/2G/2|"D"AB AF|AB AF|
"E7"A^G2G|^G3E|"A"A3/2A/2 AB|c3/2c/2 cd|"E7"ed cB|"A7"A2 F3/2G/2:|
"D"A2 f2|f2 e2|"A7"dc c=c|c2 E3/2F/2|"A7"G2 d2|d2 c2|"D"BA A^G|A2 F3/2G/2|
"D"A2 f2|f2 e2|"A7"dc c=c|c2 E3/2F/2|G2 c3/2B/2|A2 f3/2e/2|"D"dA "A7"cA|\
"D"d2 "D7"d2:|<end>
<start>
